app/static/images/icons/menu/ad.svg

<svg fill="none" viewBox="0 0 20 22" xmlns="http://www.w3.org/2000/svg"><g stroke="#000" stroke-linecap="round" stroke-linejoin="round" stroke-width="2"><path d="m4 1-3 4v14c0 .5304.21071 1.0391.58579 1.4142.37507.3751.88378.5858 1.41421.5858h14c.5304 0 1.0391-.2107 1.4142-.5858s.5858-.8838.5858-1.4142v-14l-3-4z"/><path d="m1 5h18"/><path d="m14 9c0 1.0609-.4214 2.0783-1.1716 2.8284-.7501.7502-1.7675 1.1716-2.8284 1.1716-1.06087 0-2.07828-.4214-2.82843-1.1716-.75014-.7501-1.17157-1.7675-1.17157-2.8284"/></g></svg>

<svg viewBox="0 0 20 22" fill="none" xmlns="http://www.w3.org/2000/svg">
<path d="M4 1L1 5V19C1 19.5304 1.21071 20.0391 1.58579 20.4142C1.96086 20.7893 2.46957 21 3 21H17C17.5304 21 18.0391 20.7893 18.4142 20.4142C18.7893 20.0391 19 19.5304 19 19V5L16 1H4Z" stroke="#000" stroke-width="2" stroke-linecap="round" stroke-linejoin="round"/>
<path d="M1 5H19" stroke="#000" stroke-width="2" stroke-linecap="round" stroke-linejoin="round"/>
<path d="M14 9C14 10.0609 13.5786 11.0783 12.8284 11.8284C12.0783 12.5786 11.0609 13 10 13C8.93913 13 7.92172 12.5786 7.17157 11.8284C6.42143 11.0783 6 10.0609 6 9" stroke="#000" stroke-width="2" stroke-linecap="round" stroke-linejoin="round"/>
</svg>
